!!! OTL: Berkowitz355
!!! Chapter: 1
!!! Section: III
!!! Page: 87
!!! Mode: 
!!! Encoder: DJB
**kern
*staff1
*I"Piano
=1-
*clefG2
*k[b-e-a-]
*E-:
*M5/4
8b-\
4g/
8b-\
4cc\
4b-\
4g/
=2
8e-/
4c/
8e-/
4g/
4f/
4B-/
=3
8b-\
4g/
8b-\
4cc\
4b-\
4g/
=4
8e-/
4c/
8e-/
4g/
2f/
=5
8b-\
4cc\
8b-\
4dd-\
4cc\
4b-\
=6
8a-/
4b-\
8a-/
4cc-\
4b-\
4a-/
=7
!!linebreak:original
8g/
4a-/
8an/
4b-\
4g/
4e-/
=8
8c/
4e-/
8g/
4f/
2e-/
==
*-
